icons/plexis/48/geda-gschem.svg

<svg viewBox="0 0 48 48" xmlns="http://www.w3.org/2000/svg" xmlns:xlink="http://www.w3.org/1999/xlink">
  <linearGradient id="a" gradientTransform="matrix(0 -1 1 0 -.0000015 47.999998)" gradientUnits="userSpaceOnUse" x1="1" x2="47">
    <stop offset="0" stop-color="#e4e4e4"/>
    <stop offset="1" stop-color="#eee"/>
  </linearGradient>
  <path d="m47 24c0 22.703-.297 23-23 23-22.703 0-23-.297-23-23 0-22.703.297-23 23-23 22.703 0 23 .297 23 23z" fill="url(#a)"/>
  <g transform="matrix(.99980004 0 0 .74925073 -.00019996 27.7437565)">
    <path d="m34.444 13.685c0 0 .563-.324.563-1.996 0-1.613-.633-2-.633-2h-15.366l-4 1.996 4 2" fill-opacity=".118"/>
    <path d="m33.444 12.35c0 0 .563-.324.563-1.996 0-1.613-.633-2-.633-2h-15.366l-4 1.996 4 2" fill="#ee9d3a"/>
    <path d="m18 8.354l-4 2 4 2" fill="#e2b75a"/>
    <path d="m16 9.354l-2 .994 2 1.01" fill="#2d2d2d"/>
  </g>
  <path d="m25 12a10 10 0 0 0-10 10 10 10 0 0 0  10 10 10 10 0 0 0  5-1.35v1.35h2v-2.871a10 10 0 0 0 3-7.129 10 10 0 0 0-3-7.139v-2.861h-2v1.355a10 10 0 0 0-5-1.355m0 1a9 9 0 0 1 4.908 1.465l-6.908 3.978v-2.443h-2v5h-4.939a9 9 0 0 1 8.939-8m6.326 2.609a9 9 0 0 1 2.674 6.391 9 9 0 0 1-2.69 6.41l-8.31-4.814v-3.192l8.33-4.795m-15.26 7.391h4.93v5h2v-2.438l6.893 3.99a9 9 0 0 1-4.893 1.448 9 9 0 0 1-8.93-8" fill-opacity=".098"/>
  <path d="m24 11a10 10 0 0 0-10 10 10 10 0 0 0  10 10 10 10 0 0 0  5-1.35v1.35h2v-2.87a10 10 0 0 0 3-7.13 10 10 0 0 0-3-7.139v-2.861h-2v1.355a10 10 0 0 0-5-1.355zm0 1a9 9 0 0 1 4.908 1.465l-6.908 3.978v-2.443h-2v5h-4.94a9 9 0 0 1 8.94-8zm6.33 2.609a9 9 0 0 1 2.67 6.391 9 9 0 0 1-2.69 6.41l-8.31-4.814v-3.192zm-15.26 7.391h4.93v5h2v-2.437l6.893 3.99a9 9 0 0 1-4.893 1.447 9 9 0 0 1-8.93-8z" fill="#323232"/>
</svg>

<svg xmlns="http://www.w3.org/2000/svg" viewBox="0 0 48 48">
 <defs>
  <linearGradient id="linearGradient3764" x1="1" x2="47" gradientUnits="userSpaceOnUse" gradientTransform="matrix(0,-1,1,0,-1.5e-6,47.999998)">
   <stop style="stop-color:#e4e4e4;stop-opacity:1"/>
   <stop offset="1" style="stop-color:#eee;stop-opacity:1"/>
  </linearGradient>
 </defs>
 <g>
  
  
  
 </g>
 <g>
  <path d="m 47,24 C 47,46.703 46.703,47 24,47 1.297,47 1,46.703 1,24 1,1.297 1.297,1 24,1 46.703,1 47,1.297 47,24 z" style="fill:url(#linearGradient3764);fill-opacity:1"/>
 </g>
 <g>
  
 </g>
 <g>
  <g>
   <g transform="translate(0,2.0000005)">
    <g transform="matrix(0.99980004,0,0,0.74925073,-1.9996012e-4,25.743756)">
     <path d="m 34.444 13.685 c 0 0 0.563 -0.324 0.563 -1.996 0 -1.613 -0.633 -2 -0.633 -2 l -15.366 0 -4 1.996 4 2" style="fill:#000;fill-opacity:0.118;stroke:none;fill-rule:nonzero"/>
     <path d="m 33.444 12.35 c 0 0 0.563 -0.324 0.563 -1.996 0 -1.613 -0.633 -2 -0.633 -2 l -15.366 0 -4 1.996 l 4 2" style="fill:#ee9d3a;fill-opacity:1;stroke:none;fill-rule:nonzero"/>
     <path d="m 18 8.354 -4 2 4 2" style="fill:#e2b75a;fill-opacity:1;stroke:none;fill-rule:nonzero"/>
     <path d="m 16 9.354 -2 0.994 2 1.01" style="fill:#2d2d2d;fill-opacity:1;stroke:none;fill-rule:nonzero"/>
    </g>
   </g>
   <path d="M 25 12 A 10 10 0 0 0 15 22 10 10 0 0 0 25 32 10 10 0 0 0 30 30.65 L 30 32 l 2 0 0 -2.871 A 10 10 0 0 0 35 22 10 10 0 0 0 32 14.861 L 32 12 l -2 0 0 1.355 A 10 10 0 0 0 25 12 m 0 1 a 9 9 0 0 1 4.908 1.465 L 23 18.443 23 16 l -2 0 0 5 -4.939 0 A 9 9 0 0 1 25 13 m 6.326 2.609 A 9 9 0 0 1 34 22 9 9 0 0 1 31.31 28.41 L 23 23.596 23 20.404 31.33 15.609 M 16.07 23 21 23 l 0 5 2 0 0 -2.438 6.893 3.99 A 9 9 0 0 1 25 31 9 9 0 0 1 16.07 23" style="fill:#000;fill-opacity:0.098"/>
  </g>
  <path d="M 24 11 A 10 10 0 0 0 14 21 A 10 10 0 0 0 24 31 A 10 10 0 0 0 29 29.65 L 29 31 L 31 31 L 31 28.13 A 10 10 0 0 0 34 21 A 10 10 0 0 0 31 13.861 L 31 11 L 29 11 L 29 12.355 A 10 10 0 0 0 24 11 z M 24 12 A 9 9 0 0 1 28.908 13.465 L 22 17.443 L 22 15 L 20 15 L 20 20 L 15.06 20 A 9 9 0 0 1 24 12 z M 30.33 14.609 A 9 9 0 0 1 33 21 A 9 9 0 0 1 30.31 27.41 L 22 22.596 L 22 19.404 L 30.33 14.609 z M 15.07 22 L 20 22 L 20 27 L 22 27 L 22 24.563 L 28.893 28.553 A 9 9 0 0 1 24 30 A 9 9 0 0 1 15.07 22 z" style="fill:#323232;fill-opacity:1"/>
 </g>
</svg>
